X:1
T:The Girl I Left Behind (6)
M:6/8
L:1/8
K:Bb
E/2-F/2| G2 GF-G B| c2 cB-G E| G2 F E2 E| E4 z G| B2 GB-c d| e2 ed-c B|\
 c2 B e2 G| B4 z G| B2 GB-c d| e2- ed-c B| c2 B e2 c| B4 zE/2-F/2|\
 G2 GF-G B| c2- cB-G E| G2 F E2 E| E4 z||
